src/assets/icons/partners.svg

<svg width="24" height="24" viewBox="0 0 24 25" fill="none" xmlns="http://www.w3.org/2000/svg"><path d="M14.754 10.3936C15.7205 10.3936 16.504 11.1771 16.504 12.1436V16.8925C16.504 19.3784 14.4888 21.3936 12.003 21.3936C9.51712 21.3936 7.50193 19.3784 7.50193 16.8925V12.1436C7.50193 11.1771 8.28543 10.3936 9.25193 10.3936H14.754ZM14.754 11.8936H9.25193C9.11386 11.8936 9.00193 12.0055 9.00193 12.1436V16.8925C9.00193 18.5499 10.3455 19.8936 12.003 19.8936C13.6604 19.8936 15.004 18.5499 15.004 16.8925V12.1436C15.004 12.0055 14.8921 11.8936 14.754 11.8936ZM3.75 10.3936L7.13128 10.3926C6.78791 10.808 6.56424 11.326 6.51312 11.8937L3.75 11.8936C3.61193 11.8936 3.5 12.0055 3.5 12.1436V15.3923C3.5 16.7737 4.61984 17.8936 6.00124 17.8936C6.20123 17.8936 6.39574 17.8701 6.58216 17.8257C6.66687 18.3297 6.82156 18.8103 7.03487 19.2576C6.70577 19.3466 6.35899 19.3936 6.00124 19.3936C3.79142 19.3936 2 17.6021 2 15.3923V12.1436C2 11.1771 2.7835 10.3936 3.75 10.3936ZM16.8747 10.3926L20.25 10.3936C21.2165 10.3936 22 11.1771 22 12.1436V15.3936C22 17.6027 20.2091 19.3936 18 19.3936C17.6436 19.3936 17.298 19.3469 16.9691 19.2595C17.184 18.8113 17.3388 18.3307 17.425 17.8267C17.6092 17.8705 17.8019 17.8936 18 17.8936C19.3807 17.8936 20.5 16.7743 20.5 15.3936V12.1436C20.5 12.0055 20.3881 11.8936 20.25 11.8936L17.4928 11.8937C17.4417 11.326 17.218 10.808 16.8747 10.3926ZM12 3.39355C13.6569 3.39355 15 4.7367 15 6.39355C15 8.05041 13.6569 9.39355 12 9.39355C10.3431 9.39355 9 8.05041 9 6.39355C9 4.7367 10.3431 3.39355 12 3.39355ZM18.5 4.39355C19.8807 4.39355 21 5.51284 21 6.89355C21 8.27427 19.8807 9.39355 18.5 9.39355C17.1193 9.39355 16 8.27427 16 6.89355C16 5.51284 17.1193 4.39355 18.5 4.39355ZM5.5 4.39355C6.88071 4.39355 8 5.51284 8 6.89355C8 8.27427 6.88071 9.39355 5.5 9.39355C4.11929 9.39355 3 8.27427 3 6.89355C3 5.51284 4.11929 4.39355 5.5 4.39355ZM12 4.89355C11.1716 4.89355 10.5 5.56513 10.5 6.39355C10.5 7.22198 11.1716 7.89355 12 7.89355C12.8284 7.89355 13.5 7.22198 13.5 6.39355C13.5 5.56513 12.8284 4.89355 12 4.89355ZM18.5 5.89355C17.9477 5.89355 17.5 6.34127 17.5 6.89355C17.5 7.44584 17.9477 7.89355 18.5 7.89355C19.0523 7.89355 19.5 7.44584 19.5 6.89355C19.5 6.34127 19.0523 5.89355 18.5 5.89355ZM5.5 5.89355C4.94772 5.89355 4.5 6.34127 4.5 6.89355C4.5 7.44584 4.94772 7.89355 5.5 7.89355C6.05228 7.89355 6.5 7.44584 6.5 6.89355C6.5 6.34127 6.05228 5.89355 5.5 5.89355Z" fill="currentColor"></path></svg>

<svg xmlns="http://www.w3.org/2000/svg" width="24" height="24" fill="none" viewBox="0 0 24 25"><path fill="currentColor" d="M14.754 10.394c.966 0 1.75.783 1.75 1.75v4.748a4.501 4.501 0 1 1-9.002 0v-4.748c0-.967.783-1.75 1.75-1.75h5.502Zm0 1.5H9.252a.25.25 0 0 0-.25.25v4.748a3.001 3.001 0 1 0 6.002 0v-4.748a.25.25 0 0 0-.25-.25Zm-11.004-1.5 3.381-.001a2.737 2.737 0 0 0-.618 1.5H3.75a.25.25 0 0 0-.25.25v3.25a2.501 2.501 0 0 0 3.082 2.433c.085.504.24.984.453 1.432A4.001 4.001 0 0 1 2 15.393v-3.25c0-.966.784-1.75 1.75-1.75Zm13.125-.001h3.375c.966 0 1.75.784 1.75 1.75v3.25a4 4 0 0 1-5.03 3.866c.214-.448.369-.928.455-1.432a2.5 2.5 0 0 0 3.075-2.433v-3.25a.25.25 0 0 0-.25-.25h-2.757a2.738 2.738 0 0 0-.618-1.501Zm-4.875-7a3 3 0 1 1 0 6 3 3 0 0 1 0-6Zm6.5 1a2.5 2.5 0 1 1 0 5 2.5 2.5 0 0 1 0-5Zm-13 0a2.5 2.5 0 1 1 0 5 2.5 2.5 0 0 1 0-5Zm6.5.5a1.5 1.5 0 1 0 0 3 1.5 1.5 0 0 0 0-3Zm6.5 1a1 1 0 1 0 0 2 1 1 0 0 0 0-2Zm-13 0a1 1 0 1 0 0 2 1 1 0 0 0 0-2Z"/></svg>
